images/dist/be.svg

<svg width="27" height="30" viewBox="0 0 27 30" fill="none" xmlns="http://www.w3.org/2000/svg">
<g clip-path="url(#clip0_70_96)">
<path d="M9.09961 18.6562C10.1074 18.6562 10.9277 18.2988 10.9277 17.168C10.9277 16.0137 10.2422 15.5625 9.15234 15.5566H6.45703V18.6562H9.09961ZM8.7832 11.0625H6.46289V13.6875H8.96484C9.84961 13.6875 10.4766 13.3008 10.4766 12.3457C10.4766 11.3086 9.67383 11.0625 8.7832 11.0625ZM16.3711 15.4453H20.0156C19.916 14.3613 19.3535 13.7051 18.2285 13.7051C17.1563 13.7051 16.4414 14.373 16.3711 15.4453ZM22.5 1.875H3.75C1.68164 1.875 0 3.55664 0 5.625V24.375C0 26.4434 1.68164 28.125 3.75 28.125H22.5C24.5684 28.125 26.25 26.4434 26.25 24.375V5.625C26.25 3.55664 24.5684 1.875 22.5 1.875ZM20.4785 10.8398H15.9199V9.73242H20.4785V10.8398ZM11.3496 14.2793C12.7324 14.6719 13.4004 15.8906 13.4004 17.3027C13.4004 19.5879 11.4844 20.5664 9.43945 20.5781H3.98438V9.32812H9.28711C11.2148 9.32812 12.8848 9.87305 12.8848 12.1113C12.8848 13.2422 12.3574 13.7988 11.3496 14.2793ZM18.3047 12.0176C20.8535 12.0176 22.2656 14.0273 22.2656 16.4355C22.2656 16.5293 22.2598 16.6289 22.2539 16.7285C22.2539 16.7754 22.248 16.8164 22.248 16.8574H16.377C16.377 18.1582 17.0625 18.9258 18.375 18.9258C19.0547 18.9258 19.9277 18.5625 20.1445 17.8652H22.1191C21.5098 19.7344 20.25 20.6074 18.3047 20.6074C15.7383 20.6074 14.1387 18.8672 14.1387 16.3301C14.1387 13.8809 15.8203 12.0176 18.3047 12.0176Z" fill="white"/>
</g>
<defs>
<clipPath id="clip0_70_96">
<rect width="26.25" height="30" fill="white"/>
</clipPath>
</defs>
</svg>

<svg width="27" height="30" fill="none" xmlns="http://www.w3.org/2000/svg"><g clip-path="url(#a)"><path d="M9.1 18.656c1.007 0 1.828-.357 1.828-1.488 0-1.154-.686-1.605-1.776-1.611H6.457v3.1H9.1Zm-.317-7.593h-2.32v2.624h2.502c.885 0 1.512-.386 1.512-1.341 0-1.037-.803-1.284-1.694-1.284Zm7.588 4.382h3.645c-.1-1.084-.662-1.74-1.787-1.74-1.073 0-1.788.668-1.858 1.74ZM22.5 1.875H3.75A3.753 3.753 0 0 0 0 5.625v18.75a3.753 3.753 0 0 0 3.75 3.75H22.5a3.753 3.753 0 0 0 3.75-3.75V5.625a3.753 3.753 0 0 0-3.75-3.75Zm-2.021 8.965h-4.56V9.732h4.56v1.108Zm-9.13 3.44c1.383.392 2.051 1.61 2.051 3.023 0 2.285-1.916 3.263-3.96 3.275H3.983V9.328h5.303c1.928 0 3.598.545 3.598 2.783 0 1.131-.528 1.688-1.535 2.168Zm6.956-2.262c2.549 0 3.96 2.01 3.96 4.418 0 .093-.005.193-.011.293 0 .046-.006.087-.006.128h-5.871c0 1.301.686 2.069 1.998 2.069.68 0 1.553-.363 1.77-1.06h1.974c-.61 1.868-1.869 2.741-3.814 2.741-2.567 0-4.166-1.74-4.166-4.277 0-2.45 1.681-4.312 4.166-4.312Z" fill="#fff"/></g><defs><clipPath id="a"><path fill="#fff" d="M0 0h26.25v30H0z"/></clipPath></defs></svg>
